X:806
T:Reel 806
L:1/8
M: 4/4
K: D Major
d2fdAdfd|d2fagece|d2fdAdfd|edcdefge|d2fdAdfd|d2fagece|d2fdAdfa|gecdedd2|agfgafdf|a2fdefge|agfgafdf|edcdefge|agfgafdf|a2fdefge|afgefdec|ABcdefge|.abc